src/assets/images/footer/viber.svg

<svg width="24" height="24" viewBox="0 0 24 24" fill="none" xmlns="http://www.w3.org/2000/svg">
<path d="M11.6885 1.44C11.0366 1.44374 10.3827 1.48297 9.72324 1.5633C8.46223 1.71836 7.21242 1.97616 6.01306 2.52727C4.10567 3.40344 2.75311 4.8905 2.3608 7.05197C2.19453 7.96363 2.06002 8.88838 1.98343 9.81872C1.83584 11.6252 1.92738 13.4374 2.43926 15.2177C2.84279 16.6207 3.58632 17.8817 4.88843 18.7C5.43954 19.0456 6.16625 19.2137 6.54549 19.3893C6.65197 19.4398 6.67813 19.4697 6.68373 19.4771C6.68934 19.4827 6.70428 19.4958 6.70242 19.6079C6.68934 20.7512 6.70242 22.9631 6.70242 22.9631L6.70428 23.4395H7.55804L7.69628 23.305C7.69628 23.305 9.86522 21.2183 10.6498 20.3589C10.7918 20.2057 10.8647 20.1198 10.8796 20.1104C10.8927 20.1011 10.8703 20.0955 11.016 20.0918C12.0454 20.0712 13.0729 20.032 14.1004 19.9759C15.4548 19.9012 16.8353 19.7723 18.1636 19.2175C19.32 18.7336 20.2858 17.9434 20.8706 16.759C21.4684 15.5446 21.7878 14.2575 21.9074 12.9255C22.1054 10.708 22.0363 8.48672 21.4236 6.29723C21.063 5.0138 20.3382 3.9284 19.2266 3.16245C17.8965 2.24705 16.3963 1.90331 14.9279 1.68473C14.0705 1.55769 13.2074 1.47363 12.3405 1.44747C12.1238 1.44187 11.9071 1.43813 11.6885 1.44ZM12.3144 2.40397C13.1382 2.42639 13.9621 2.50672 14.7878 2.63002C16.2039 2.84112 17.5396 3.16245 18.6848 3.95081C19.6133 4.58973 20.1924 5.45282 20.5026 6.55317C21.0742 8.60068 21.1471 10.6986 20.9546 12.8414C20.8444 14.0763 20.5511 15.2401 20.0112 16.3368C19.5348 17.3045 18.7913 17.9191 17.7937 18.3357C16.6354 18.8195 15.3763 18.9484 14.0499 19.0213C13.0336 19.0773 12.0155 19.1147 10.9973 19.1353C10.7414 19.1409 10.4911 19.2081 10.3136 19.3389C10.1361 19.4697 10.0558 19.5911 9.94555 19.7107C9.3851 20.3234 8.26794 21.4013 7.65892 21.9917C7.65518 21.278 7.64958 20.415 7.65892 19.6191C7.66265 19.3744 7.60661 19.1241 7.4665 18.926C7.32638 18.728 7.13396 18.6084 6.94901 18.5225C6.40911 18.2722 5.70295 18.0816 5.39657 17.8892C4.32611 17.2167 3.71896 16.2078 3.3584 14.9524C2.88575 13.3103 2.79608 11.6196 2.93619 9.89905C3.01092 9.00607 3.13982 8.11122 3.30235 7.22384C3.64236 5.35381 4.71095 4.17686 6.41098 3.39597C7.48518 2.90277 8.63223 2.65991 9.84093 2.51233C10.6648 2.41145 11.4887 2.37969 12.3144 2.40397ZM12.5161 4.78775C12.122 4.78775 11.739 4.83259 11.3672 4.91479C11.1113 4.97457 10.9488 5.23051 11.0067 5.48831C11.0646 5.74612 11.3224 5.90678 11.5802 5.84887C11.881 5.77975 12.1948 5.74425 12.5161 5.74425C14.8514 5.74425 16.7345 7.62736 16.7345 9.9607C16.7345 10.2839 16.699 10.5977 16.6298 10.9004C16.5719 11.1563 16.7326 11.4141 16.9904 11.472C17.2482 11.53 17.5041 11.3674 17.5621 11.1096C17.6461 10.7397 17.691 10.3568 17.691 9.9607C17.691 7.10988 15.3688 4.78775 12.5161 4.78775ZM7.74485 5.74612C7.66639 5.74238 7.58606 5.74799 7.50199 5.76667C6.63329 5.95909 5.7702 6.58866 5.74591 7.7133C5.7702 7.87022 5.76833 8.03836 5.82625 8.18034C6.11021 8.8753 6.3568 9.59267 6.71176 10.2503C8.43981 13.4448 11.0534 15.6661 14.3843 17.0765C14.7822 17.2447 15.1932 17.2802 15.5949 17.112C16.1479 16.8823 16.6168 16.5273 16.9288 16.0173C17.3566 15.3167 17.3622 14.831 16.6579 14.3135C16.1964 13.9735 15.7425 13.6242 15.2754 13.2916C14.5637 12.7872 13.794 12.6994 13.2634 13.5849C13.2354 13.6298 13.1943 13.6671 13.1588 13.7045C12.886 13.9941 12.5516 14.0651 12.1967 13.9193C10.8497 13.3645 9.80917 12.4696 9.18147 11.1376C8.81157 10.3549 8.91246 9.96257 9.60368 9.44135C9.6728 9.39091 9.73818 9.33674 9.8017 9.27882C10.1043 9.00233 10.1847 8.67354 10.0053 8.30177C9.59994 7.45362 9.06004 6.69702 8.37629 6.04503C8.19134 5.86942 7.98024 5.7592 7.74485 5.74612ZM12.5087 6.2225C12.2976 6.2225 12.0883 6.23932 11.8828 6.27481C11.7091 6.29723 11.5615 6.41306 11.498 6.57559C11.4345 6.73998 11.4662 6.92493 11.5783 7.05944C11.6923 7.19208 11.8716 7.25373 12.0435 7.21637C12.193 7.19208 12.3499 7.179 12.5087 7.179C14.063 7.179 15.3109 8.42694 15.3109 9.98125C15.3109 10.14 15.2978 10.297 15.2736 10.4464C15.2362 10.6183 15.2978 10.7976 15.4305 10.9116C15.565 11.0237 15.7499 11.0554 15.9143 10.9919C16.0769 10.9284 16.1927 10.7808 16.2151 10.6071C16.2506 10.4016 16.2674 10.1924 16.2674 9.98125C16.2674 7.91132 14.5786 6.2225 12.5087 6.2225ZM12.4414 7.65725C12.2695 7.65539 12.1089 7.74506 12.0211 7.89451C11.9351 8.04396 11.9351 8.22704 12.0211 8.3765C12.1089 8.52595 12.2695 8.61562 12.4414 8.61375C13.2391 8.61375 13.8762 9.2508 13.8762 10.0485C13.8743 10.2204 13.964 10.381 14.1134 10.4688C14.2629 10.5548 14.446 10.5548 14.5954 10.4688C14.7449 10.381 14.8345 10.2204 14.8327 10.0485C14.8327 8.73332 13.7566 7.65725 12.4414 7.65725Z" fill="#E5E5E5"/>
</svg>

<svg width="24" height="24" fill="none" xmlns="http://www.w3.org/2000/svg"><path d="M11.688 1.44c-.651.004-1.305.043-1.965.123-1.26.155-2.51.413-3.71.964-1.907.876-3.26 2.364-3.652 4.525a28.46 28.46 0 0 0-.378 2.767c-.147 1.806-.056 3.618.456 5.399.404 1.403 1.147 2.664 2.45 3.482.55.346 1.277.514 1.656.69.107.05.133.08.139.087.005.006.02.019.018.13-.013 1.144 0 3.356 0 3.356l.002.476h.854l.138-.134s2.17-2.087 2.954-2.946c.142-.153.215-.24.23-.249.013-.009-.01-.014.136-.018 1.03-.02 2.057-.06 3.084-.116 1.355-.075 2.735-.204 4.064-.758 1.156-.484 2.122-1.275 2.707-2.459.597-1.214.917-2.502 1.036-3.834.198-2.217.13-4.438-.483-6.628-.361-1.283-1.086-2.369-2.197-3.135-1.33-.915-2.83-1.259-4.3-1.477a22.228 22.228 0 0 0-2.586-.238 18.92 18.92 0 0 0-.652-.007Zm.626.964c.824.022 1.648.103 2.474.226 1.416.211 2.752.532 3.897 1.32.928.64 1.507 1.503 1.818 2.603.571 2.048.644 4.146.452 6.288-.11 1.235-.404 2.4-.944 3.496-.476.968-1.22 1.582-2.217 1.999-1.159.484-2.418.612-3.744.685a87.758 87.758 0 0 1-3.053.114c-.256.006-.506.073-.683.204-.178.13-.258.252-.368.372-.56.612-1.678 1.69-2.287 2.28-.004-.713-.01-1.576 0-2.372a1.17 1.17 0 0 0-.192-.693 1.258 1.258 0 0 0-.518-.403c-.54-.25-1.246-.441-1.552-.634-1.07-.672-1.678-1.681-2.039-2.937-.472-1.642-.562-3.332-.422-5.053.075-.893.204-1.788.366-2.675.34-1.87 1.409-3.047 3.109-3.828 1.074-.493 2.221-.736 3.43-.884.824-.1 1.648-.132 2.473-.108Zm.202 2.384c-.394 0-.777.045-1.149.127a.48.48 0 0 0 .213.934 4.21 4.21 0 0 1 5.154 4.112c0 .323-.035.637-.104.94a.478.478 0 1 0 .932.209 5.172 5.172 0 0 0-5.046-6.322Zm-4.771.958a.91.91 0 0 0-.243.02c-.869.193-1.732.823-1.756 1.947.024.157.022.325.08.467.284.695.53 1.413.886 2.07 1.728 3.195 4.341 5.416 7.672 6.826.398.169.81.204 1.21.036.554-.23 1.023-.585 1.335-1.095.428-.7.433-1.186-.271-1.704-.462-.34-.916-.689-1.383-1.021-.711-.505-1.481-.593-2.012.293-.028.045-.069.082-.104.12-.273.29-.607.36-.962.214-1.347-.555-2.388-1.45-3.016-2.781-.37-.783-.269-1.175.423-1.697.069-.05.134-.104.198-.162.302-.277.383-.605.203-.977a7.647 7.647 0 0 0-1.629-2.257c-.185-.176-.396-.286-.631-.299Zm4.764.476c-.211 0-.42.017-.626.053a.48.48 0 0 0-.305.784.481.481 0 0 0 .466.157c.149-.024.306-.037.465-.037a2.794 2.794 0 0 1 2.802 2.802c0 .159-.013.316-.037.465a.48.48 0 0 0 .157.466.48.48 0 0 0 .785-.304 3.766 3.766 0 0 0-3.706-4.385Zm-.068 1.435a.481.481 0 0 0-.42.238.482.482 0 0 0 0 .482c.088.149.248.239.42.237.798 0 1.435.637 1.435 1.434a.481.481 0 0 0 .237.42c.15.087.333.087.482 0a.481.481 0 0 0 .238-.42 2.398 2.398 0 0 0-2.392-2.39Z" fill="#E5E5E5"/></svg>
